X:1
T:Schwanengesang
T:Der Doppelgänger
T:13. Der Doppelgänger
T:Franz Schubert
T:Schwanengesang (D.957)
T:Heinrich Heine
T:OpenScore (CC0)
T:OpenScore (CC0)
T:OpenScore (CC0)
C:Franz Schubert
Z:Heinrich Heine
Z:OpenScore (CC0)
%%score 1 { ( 2 4 ) | ( 3 5 ) }
L:1/8
Q:1/4=40
M:3/4
K:D
V:1 treble nm="Voice"
V:2 bass nm="Piano"
V:4 bass 
V:3 bass 
V:5 bass 
V:1
"^Sehr langsam." z6 | z6 | z6 | z6 | z2!pp! F2 F3/2 F/ | F6 | z3/2 F/ F2 D3/2 B,/ | F2 F2 z2 | %8
w: ||||Still ist die|Nacht,|es ru- hen die|Gas- sen,|
 z F F3/2G/4F/4 ED | C>F F2 z2 | F7/2 F/ A>G | F4 z2 | z6 | z6 | z3/2 F/ F3 F | (G2 F2) z2 | %16
w: in die- * * sem *|Hau- * se|wohn- te mein *|Schatz;|||sie  hat schon|längst *|
 z3/2 F/ F2 DB, | F2 F2 z2 | z F F2 E D | (C2 F2) z2 | F3/2 F/ (!turn!F2 A3/2) G/ | F4 z2 | z6 | %23
w: die Stadt ver- *|las- sen,|doch steht noch das|Haus *|auf dem- sel- * ben|Platz.||
 z6 | z3/2!p! D/ D2 D E | F4 z2 | z F FB B3/2 B/ | B2 ^A2 z2 | z d d3 d | d2 c2 z2 | z f f4- | %31
w: |Da steht auch ein|Mensch,|und starrt * in die|Hö- he,|und ringt die|Hän- de|vor Schmer-|
 f2 F3/2 F/ F2- | F4 z2 | z2 (D3 E) | G2 F2 z2 | z3/2 F/ F F B3/2 B/ | B2 ^A2 z2 | z3/2 d/ d3 e | %38
w: * zens- ge- walt;|_|mir _|graut es,|wenn ich sein Ant- litz|se- he,|der Mond zeigt|
 c4 c c | f4 f f | g6- | g2 z2 z2 | z[Q:1/4=50] F[Q:1/4=50]"^.7" F3[Q:1/4=52]"^.7" F | %43
w: mir mei- ne|eig'- ne Ge-|stalt.|_|Du Dop- pel-|
[Q:1/4=53]"^.3" F2[Q:1/4=54]"^.7" F2[Q:1/4=56] z2 | %44
w: gän- ger,|
[Q:1/4=57]"^.3" z[Q:1/4=58] F[Q:1/4=58]"^.7" F2[Q:1/4=60] F[Q:1/4=60]"^.7" F | %45
w: du bleich- er Ge-|
[Q:1/4=61]"^.3" A2[Q:1/4=62]"^.7" F2[Q:1/4=64] z[Q:1/4=64]"^.7" F | %46
w: sel- le! was|
[Q:1/4=65]"^.3" F3[Q:1/4=67]"^.3" ^E[Q:1/4=68] F[Q:1/4=68]"^.7" ^G | %47
w: äffst du nach mein|
[Q:1/4=69]"^.3" ^A3/2[Q:1/4=70]"^.3" B/[Q:1/4=70]"^.7" A2[Q:1/4=72] z[Q:1/4=72]"^.7" ^^C | %48
w: Lie- bes- leid, das|
[Q:1/4=73]"^.3" ^D3/2[Q:1/4=74]"^.3" ^E/[Q:1/4=74]"^.7" F[Q:1/4=75]"^.3" E[Q:1/4=76] F[Q:1/4=76]"^.7" ^G | %49
w: mich ge- quält auf die- ser|
[Q:1/4=77]"^.3" B2[Q:1/4=78]"^.7" ^A2[Q:1/4=80] z2 | z2 z2[Q:1/4=60] B2 | %51
w: Stel- le|so|
[Q:1/4=57]"^.1" f4-[Q:1/4=51]"^.4" f[Q:1/4=50]!ff!!>(! e |[Q:1/4=48]"^.6" =d4[Q:1/4=42]"^.9" d2 | %53
w: man- * che|Nacht, in|
[Q:1/4=40] (c4 dc | e3 d) c2!>)! |!p! B4 z2 | z6 | z6 | z6 | z6 | z6 | z6 | !fermata!z6 |] %63
w: al- * *|* * ter|Zeit?||||||||
V:2
 ([F,B,]6 | [F,^A,]6 | [F,D]6 | [F,C]6) | ([F,B,]6 | [F,^A,]6 | [F,D]6 | [F,C]6) | ([F,B,]6 | %9
 (=A,4) F,2) | ([D,F,A,]6 |!>(! [C,E,F,^A,]6)!>)! |[K:treble]!pp! F4- (F3/2=A/4G/4) | x6 | %14
[K:bass] ([F,B,]6 | [F,^A,]6 | [F,D]6 | [F,C]6) | ([F,B,]6 | (=A,4) F,2) | ([D,F,A,]6 | %21
!>(! [C,E,F,^A,]6)!>)! |[K:treble] F4- (F3/2=A/4G/4) | x6 |[K:bass]!>(! [F,B,]6!>)! | %25
!>(! [F,^A,]6!>)! |!>(! [F,D]6!>)! |!>(! [F,C]6!>)! | [F,B,]6 | (=A,4 F,2) |!>(! [D,F,A,]6!>)! | %31
!>(! [=C,E,F,^A,]6-!>)! | [C,E,F,A,]6 |!>(! [D,F,B,]6!>)! |!>(! [F,^A,]6!>)! | [F,D]6 | [F,C]6 | %37
 [F,B,]6 | (=A,4 F,2) |!>(! [D,F,A,]6!>)! |!>(! [=C,E,=G,^A,]6-!>)! | (G,4 F,2) | %42
!>(! [D,F,B,]6!>)! |!>(! [F,=C]6!>)! |!>(! [F,^C]6!>)! |!>(! [F,D]6!>)! |!>(! [F,^A,^D]6!>)! | %47
!>(! [^E,^A,^^C]6!>)! |!>(! [F,^A,^D]6!>)! |!>(! [^E,^A,^^C]6!>)! |!>(! [^E,B,=D]6!>)! | %51
!>(! [F,B,D]6-!>)! | [F,B,D]6 | (([E,-G,B,C-]6 | [E,F,^A,C]6)) | ([D,F,B,]6 | [F,^A,]6 | [F,D]6 | %58
 [E,G,=C]6) | ([^D,F,=A,B,-]6 | [E,G,B,]6) | [^D,F,B,]6- | !fermata![D,F,B,]6 |] %63
V:3
!pp! ([B,,,F,,B,,]6 | [^A,,,F,,^A,,]6 | [D,,F,,D,]6 | [C,,F,,C,]6) | ([B,,,F,,B,,]6 | %5
 [^A,,,F,,^A,,]6 | [D,,F,,D,]6 | [C,,F,,C,]6) | ([B,,,F,,B,,]6 | ([=A,,,F,,=A,,]4) F,,2) | %10
 (([D,,F,,-A,,]6 |!mp! [C,,F,,^A,,]6-)) | [C,,F,,A,,]6- | [C,,F,,A,,]6 | ([B,,,F,,B,,]6 | %15
 [^A,,,F,,^A,,]6 | [D,,F,,D,]6 | [C,,F,,C,]6) | ([B,,,F,,B,,]6 | ([=A,,,F,,=A,,]4) F,,2) | %20
 (([D,,F,,-A,,]6 | [C,,F,,^A,,]6-)) | [C,,F,,A,,]6- | [C,,F,,A,,]6 | [B,,,F,,B,,]6 | %25
"^cresc." [^A,,,F,,^A,,]6 | [D,,F,,D,]6 | [C,,F,,C,]6 | [B,,,F,,B,,]6 | ([=A,,,F,,=A,,]4 F,,2) | %30
!fff! [D,,F,,A,,]6 |!ff! [=C,,F,,^A,,]6- |"^dim." [C,,F,,A,,]6 |!p! [B,,,F,,B,,]6 | %34
 [^A,,,F,,^A,,]6 |"^cresc." [D,,F,,D,]6 | [C,,F,,C,]6 | [B,,,F,,B,,]6 | ([=A,,,F,,=A,,]4 F,,2) | %39
!ff! [D,,F,,A,,]6 |!fff! [=C,,=G,,^A,,]6- |"^dim." (G,,4 F,,2) |!p!"^accelerando" [B,,,F,,B,,]6 | %43
 [=C,,F,,=C,]6 |"^cresc." [^C,,F,,^C,]6 | [D,,F,,D,]6 |!ff! [^D,,^A,,^D,]6 |!ff! [^A,,,^A,,]6 | %48
 [^D,,^A,,^D,]6 | [^A,,,^A,,]6 |!ff! [=G,,,=G,,]6 |!fff! [F,,,F,,]6- | [F,,,F,,]6 | %53
!p! [F,,,F,,]6- | [F,,,F,,]6 |!pp! ([B,,,F,,B,,]6 | [^A,,,F,,^A,,]6 | [D,,F,,D,]6 | %58
 [=C,,G,,=C,]6) |!ppp! [B,,,B,,]6- | [B,,,B,,]6 | [B,,,B,,]6- | !fermata![B,,,B,,]6 |] %63
V:4
 x6 | x6 | x6 | x6 | x6 | x6 | x6 | x6 | x6 | F,6 | x6 | x6 |[K:treble] [^A,E]6- | [A,EF]6 | %14
[K:bass] x6 | x6 | x6 | x6 | x6 | F,6 | x6 | x6 |[K:treble] [^A,E]6- | [A,EF]6 |[K:bass] x6 | x6 | %26
 x6 | x6 | x6 | F,6 | x6 | x6 | x6 | x6 | x6 | x6 | x6 | x6 | F,6 | x6 | x6 | [C,E,A,]6 | x6 | x6 | %44
 x6 | x6 | x6 | x6 | x6 | x6 | x6 | x6 | x6 | x6 | x6 | x6 | x6 | x6 | x6 | x6 | x6 | x6 | x6 |] %63
V:5
 x6 | x6 | x6 | x6 | x6 | x6 | x6 | x6 | x6 | x6 | x6 | x6 | x6 | x6 | x6 | x6 | x6 | x6 | x6 | %19
 x6 | x6 | x6 | x6 | x6 | x6 | x6 | x6 | x6 | x6 | x6 | x6 | x6 | x6 | x6 | x6 | x6 | x6 | x6 | %38
 x6 | x6 | x6 | [C,,A,,]6 | x6 | x6 | x6 | x6 | x6 | x6 | x6 | x6 | x6 | x6 | x6 | x6 | x6 | x6 | %56
 x6 | x6 | x6 | x6 | x6 | x6 | x6 |] %63

